public/images/logo.svg

<svg width="660" height="55" viewBox="0 0 660 55" fill="none" xmlns="http://www.w3.org/2000/svg">
<path d="M20.5069 43.4328C22.5791 43.4328 24.0592 43.1368 25.6874 42.6928V52.3877C24.0592 53.1277 21.395 53.6458 17.4726 53.6458C11.034 53.6458 5.6315 51.4996 5.6315 39.6585V24.3391H0.229004V14.7182H5.6315V5.68935H17.3246V14.7182H25.5393V24.3391H17.3246V39.6585C17.3246 41.3607 17.7686 43.4328 20.5069 43.4328ZM59.5825 14.7182H71.2756V53.2017H59.5825V49.3534C59.0644 50.6855 55.5861 53.9418 49.6656 53.9418C40.8588 53.9418 30.7198 47.6512 30.7198 33.886C30.7198 20.6387 40.8588 14.0521 49.6656 14.0521C55.5861 14.0521 59.0644 17.4564 59.5825 18.2705V14.7182ZM51.3677 43.6549C56.1782 43.6549 60.1005 40.3246 60.1005 33.886C60.1005 27.6694 56.1782 24.3391 51.3677 24.3391C46.3353 24.3391 42.0429 27.7434 42.0429 33.886C42.0429 40.2505 46.3353 43.6549 51.3677 43.6549ZM105.541 53.2017L97.548 41.9527L89.6293 53.2017H76.234L90.8134 33.4419L77.7142 14.7182H90.9614L97.548 25.0051L104.209 14.7182H117.456L104.283 33.4419L118.936 53.2017H105.541ZM136.624 0.878906V10.7218H124.931V0.878906H136.624ZM136.624 14.7182V53.2017H124.931V14.7182H136.624ZM162.452 26.8553C161.416 24.1911 159.862 23.303 158.16 23.303C156.605 23.303 155.051 24.1911 155.051 25.6712C155.051 27.0773 155.939 27.8914 157.642 28.4835L162.526 30.1856C168.003 32.1838 173.553 34.182 173.553 41.8787C173.553 49.6494 165.782 54.0898 157.79 54.0898C150.611 54.0898 143.876 49.8714 142.248 43.1368L151.425 40.2505C152.387 42.3967 154.089 44.839 157.79 44.839C160.306 44.839 161.934 43.2108 161.934 41.7307C161.934 40.9906 161.342 40.0285 159.492 39.2885L154.977 37.6603C147.281 34.8481 143.654 30.9257 143.654 25.4492C143.654 18.2705 150.315 14.0521 157.642 14.0521C165.116 14.0521 170.075 18.1225 172.295 24.2651L162.452 26.8553ZM198.271 43.4328C200.344 43.4328 201.824 43.1368 203.452 42.6928V52.3877C201.824 53.1277 199.159 53.6458 195.237 53.6458C188.798 53.6458 183.396 51.4996 183.396 39.6585V24.3391H177.993V14.7182H183.396V5.68935H195.089V14.7182H203.304V24.3391H195.089V39.6585C195.089 41.3607 195.533 43.4328 198.271 43.4328ZM228.762 14.0521C237.495 14.0521 249.04 20.6387 249.04 34.108C249.04 47.6512 237.495 53.9418 228.762 53.9418C220.029 53.9418 208.484 47.6512 208.484 34.108C208.484 20.6387 220.029 14.0521 228.762 14.0521ZM228.762 24.3391C224.322 24.3391 219.807 27.7434 219.807 34.108C219.807 40.2505 224.322 43.6549 228.762 43.6549C233.203 43.6549 237.791 40.2505 237.791 34.108C237.791 27.7434 233.203 24.3391 228.762 24.3391ZM306.839 14.1261C315.054 14.1261 322.307 19.4546 322.307 32.4798V53.2017H310.614V32.8499C310.614 27.9654 308.542 24.2651 303.139 24.2651C298.625 24.2651 295.59 28.2614 294.702 31.8138V53.2017H283.009V32.8499C283.009 27.9654 279.975 24.2651 275.534 24.2651C270.724 24.2651 267.838 27.5214 267.098 31.8138V53.2017H255.405V14.7182H267.098V21.7488C267.246 19.9727 271.02 14.1261 278.569 14.1261C284.119 14.1261 289.448 17.0864 292.63 22.4889C293.518 20.4167 297.959 14.1261 306.839 14.1261ZM357.09 14.7182H368.783V53.2017H357.09V49.3534C356.572 50.6855 353.094 53.9418 347.173 53.9418C338.366 53.9418 328.227 47.6512 328.227 33.886C328.227 20.6387 338.366 14.0521 347.173 14.0521C353.094 14.0521 356.572 17.4564 357.09 18.2705V14.7182ZM348.875 43.6549C353.686 43.6549 357.608 40.3246 357.608 33.886C357.608 27.6694 353.686 24.3391 348.875 24.3391C343.843 24.3391 339.55 27.7434 339.55 33.886C339.55 40.2505 343.843 43.6549 348.875 43.6549ZM401.05 14.1261C402.086 14.1261 403.122 14.1261 404.084 14.3482V25.5232C403.196 25.3012 402.16 25.3012 401.42 25.3012C394.315 25.3012 388.617 30.4076 388.025 37.5123V53.2017H376.332V14.7182H388.025V24.1171C389.801 18.3445 394.241 14.1261 401.05 14.1261ZM434.797 14.1261C435.833 14.1261 436.869 14.1261 437.832 14.3482V25.5232C436.943 25.3012 435.907 25.3012 435.167 25.3012C428.063 25.3012 422.364 30.4076 421.772 37.5123V53.2017H410.079V14.7182H421.772V24.1171C423.548 18.3445 427.989 14.1261 434.797 14.1261ZM471.505 14.7182H483.198V53.2017H471.505V49.3534C470.987 50.6855 467.508 53.9418 461.588 53.9418C452.781 53.9418 442.642 47.6512 442.642 33.886C442.642 20.6387 452.781 14.0521 461.588 14.0521C467.508 14.0521 470.987 17.4564 471.505 18.2705V14.7182ZM463.29 43.6549C468.1 43.6549 472.023 40.3246 472.023 33.886C472.023 27.6694 468.1 24.3391 463.29 24.3391C458.257 24.3391 453.965 27.7434 453.965 33.886C453.965 40.2505 458.257 43.6549 463.29 43.6549ZM517.389 53.2017L504.882 38.2524L502.439 40.8426V53.2017H490.746V39.2144V0.878906H502.439V26.5593L513.318 14.7182H527.306L512.06 30.7777L530.71 53.2017H517.389ZM555.058 14.0521C563.791 14.0521 576.002 20.6387 573.56 38.0303H546.696C548.028 42.0267 551.506 44.0989 556.168 44.0989C560.905 44.0989 562.385 43.0628 565.049 41.9527L571.488 48.1693C568.084 51.4996 563.495 53.9418 555.724 53.9418C546.178 53.9418 534.78 47.3552 534.78 34.108C534.78 20.6387 546.325 14.0521 555.058 14.0521ZM555.058 24.043C551.728 24.043 548.324 25.9672 546.844 29.8156H563.199C562.015 25.9672 558.389 24.043 555.058 24.043ZM599.166 14.0521C606.197 14.0521 612.118 17.0124 615.744 23.229L606.863 27.4474C604.939 25.8192 603.385 24.3391 599.314 24.3391C594.874 24.3391 590.36 27.7434 590.36 34.034C590.36 40.2505 594.874 43.5068 599.314 43.5068C603.385 43.5068 604.939 42.1747 606.863 40.5466L615.892 44.765C612.118 50.9815 606.345 53.7938 599.166 53.7938C590.582 53.7938 579.037 47.6512 579.037 34.034C579.037 20.6387 590.582 14.0521 599.166 14.0521ZM645.495 14.1261C652.673 14.1261 660 18.9366 660 31.1477V53.2017H648.307V31.9618C648.307 26.1152 646.309 24.2651 642.608 24.2651C637.354 24.2651 634.32 29.3715 633.58 31.5917V53.2017H621.887V0.878906H633.58V21.3788C634.32 19.5286 638.242 14.1261 645.495 14.1261Z" fill="white"/>
</svg>

<svg xmlns="http://www.w3.org/2000/svg" width="660" height="55" fill="none"><path fill="#fff" d="M20.507 43.433c2.072 0 3.552-.296 5.18-.74v9.695c-1.628.74-4.292 1.258-8.214 1.258-6.439 0-11.841-2.146-11.841-13.988V24.34H.228v-9.62h5.403v-9.03h11.693v9.03h8.214v9.62h-8.214v15.32c0 1.702.444 3.774 3.182 3.774m39.076-28.715h11.693v38.484H59.583v-3.849c-.519 1.332-3.997 4.589-9.917 4.589-8.807 0-18.946-6.29-18.946-20.056 0-13.247 10.139-19.834 18.946-19.834 5.92 0 9.398 3.404 9.917 4.218zm-8.215 28.937c4.81 0 8.732-3.33 8.732-9.769 0-6.217-3.922-9.547-8.732-9.547-5.033 0-9.325 3.404-9.325 9.547 0 6.365 4.292 9.769 9.325 9.769m54.173 9.547-7.993-11.25-7.919 11.25H76.234l14.58-19.76-13.1-18.724h13.247l6.587 10.287 6.661-10.287h13.247l-13.173 18.724 14.653 19.76zM136.624.879v9.843h-11.693V.879zm0 13.84v38.483h-11.693V14.718zm25.828 12.136c-1.036-2.664-2.59-3.552-4.292-3.552-1.555 0-3.109.888-3.109 2.368 0 1.406.888 2.22 2.591 2.813l4.884 1.702c5.477 1.998 11.027 3.996 11.027 11.693 0 7.77-7.771 12.21-15.763 12.21-7.179 0-13.914-4.218-15.542-10.952l9.177-2.886c.962 2.146 2.664 4.588 6.365 4.588 2.516 0 4.144-1.628 4.144-3.108 0-.74-.592-1.703-2.442-2.443l-4.515-1.628c-7.696-2.812-11.323-6.734-11.323-12.21 0-7.18 6.661-11.398 13.988-11.398 7.474 0 12.433 4.07 14.653 10.213zm35.819 16.578c2.073 0 3.553-.296 5.181-.74v9.695c-1.628.74-4.293 1.258-8.215 1.258-6.439 0-11.841-2.146-11.841-13.988V24.34h-5.403v-9.62h5.403v-9.03h11.693v9.03h8.215v9.62h-8.215v15.32c0 1.702.444 3.774 3.182 3.774m30.491-29.38c8.733 0 20.278 6.586 20.278 20.055 0 13.543-11.545 19.834-20.278 19.834s-20.278-6.29-20.278-19.834c0-13.47 11.545-20.056 20.278-20.056m0 10.286c-4.44 0-8.955 3.404-8.955 9.769 0 6.143 4.515 9.547 8.955 9.547s9.029-3.404 9.029-9.547c0-6.365-4.588-9.769-9.029-9.769m78.077-10.213c8.215 0 15.468 5.329 15.468 18.354v20.722h-11.693V32.85c0-4.885-2.072-8.585-7.475-8.585-4.514 0-7.549 3.996-8.437 7.549v21.388h-11.693V32.85c0-4.885-3.034-8.585-7.475-8.585-4.81 0-7.696 3.256-8.436 7.549v21.388h-11.693V14.718h11.693v7.03c.148-1.775 3.922-7.622 11.471-7.622 5.55 0 10.879 2.96 14.061 8.363.888-2.072 5.329-8.363 14.209-8.363m50.251.592h11.693v38.484H357.09v-3.849c-.518 1.332-3.996 4.589-9.917 4.589-8.807 0-18.946-6.29-18.946-20.056 0-13.247 10.139-19.834 18.946-19.834 5.921 0 9.399 3.404 9.917 4.218zm-8.215 28.937c4.811 0 8.733-3.33 8.733-9.769 0-6.217-3.922-9.547-8.733-9.547-5.032 0-9.325 3.404-9.325 9.547 0 6.365 4.293 9.769 9.325 9.769m52.175-29.529c1.036 0 2.072 0 3.034.222v11.175c-.888-.222-1.924-.222-2.664-.222-7.105 0-12.803 5.107-13.395 12.211v15.69h-11.693V14.718h11.693v9.4c1.776-5.773 6.216-9.992 13.025-9.992m33.747 0c1.036 0 2.072 0 3.035.222v11.175c-.889-.222-1.925-.222-2.665-.222-7.104 0-12.803 5.107-13.395 12.211v15.69h-11.693V14.718h11.693v9.4c1.776-5.773 6.217-9.992 13.025-9.992m36.708.592h11.693v38.484h-11.693v-3.849c-.518 1.332-3.997 4.589-9.917 4.589-8.807 0-18.946-6.29-18.946-20.056 0-13.247 10.139-19.834 18.946-19.834 5.92 0 9.399 3.404 9.917 4.218zm-8.215 28.937c4.81 0 8.733-3.33 8.733-9.769 0-6.217-3.923-9.547-8.733-9.547-5.033 0-9.325 3.404-9.325 9.547 0 6.365 4.292 9.769 9.325 9.769m54.099 9.547-12.507-14.95-2.443 2.59v12.36h-11.693V.879h11.693v25.68l10.879-11.84h13.988L512.06 30.777l18.65 22.424zm37.669-39.15c8.733 0 20.944 6.587 18.502 23.978h-26.864c1.332 3.997 4.81 6.069 9.472 6.069 4.737 0 6.217-1.036 8.881-2.146l6.439 6.216c-3.404 3.33-7.993 5.773-15.764 5.773-9.546 0-20.944-6.587-20.944-19.834 0-13.47 11.545-20.056 20.278-20.056m0 9.991c-3.33 0-6.734 1.924-8.214 5.773h16.355c-1.184-3.849-4.81-5.773-8.141-5.773m44.108-9.99c7.031 0 12.952 2.96 16.578 9.176l-8.881 4.218c-1.924-1.628-3.478-3.108-7.549-3.108-4.44 0-8.954 3.404-8.954 9.695 0 6.217 4.514 9.473 8.954 9.473 4.071 0 5.625-1.332 7.549-2.96l9.029 4.218c-3.774 6.216-9.547 9.029-16.726 9.029-8.584 0-20.129-6.143-20.129-19.76 0-13.395 11.545-19.982 20.129-19.982m46.329.073c7.178 0 14.505 4.81 14.505 17.022v22.054h-11.693v-21.24c0-5.847-1.998-7.697-5.699-7.697-5.254 0-8.288 5.107-9.028 7.327v21.61h-11.693V.879h11.693v20.5c.74-1.85 4.662-7.253 11.915-7.253"/></svg>
